images/50164350.svg

<?xml version="1.0" encoding="UTF-8"?>
<svg xmlns="http://www.w3.org/2000/svg" xmlns:xlink="http://www.w3.org/1999/xlink" width="300pt" height="300pt" viewBox="0 0 300 300" version="1.1">
<defs>
<g>
<symbol overflow="visible" id="glyph0-0">
<path style="stroke:none;" d="M 0.546875 1.9375 L 0.546875 -7.75 L 6.046875 -7.75 L 6.046875 1.9375 Z M 1.171875 1.328125 L 5.4375 1.328125 L 5.4375 -7.140625 L 1.171875 -7.140625 Z M 1.171875 1.328125 "/>
</symbol>
<symbol overflow="visible" id="glyph0-1">
<path style="stroke:none;" d="M 7.078125 -7.40625 L 7.078125 -6.25 C 6.710938 -6.59375 6.320312 -6.847656 5.90625 -7.015625 C 5.5 -7.179688 5.0625 -7.265625 4.59375 -7.265625 C 3.675781 -7.265625 2.972656 -6.984375 2.484375 -6.421875 C 2.003906 -5.867188 1.765625 -5.0625 1.765625 -4 C 1.765625 -2.945312 2.003906 -2.140625 2.484375 -1.578125 C 2.972656 -1.015625 3.675781 -0.734375 4.59375 -0.734375 C 5.0625 -0.734375 5.5 -0.816406 5.90625 -0.984375 C 6.320312 -1.148438 6.710938 -1.40625 7.078125 -1.75 L 7.078125 -0.625 C 6.703125 -0.363281 6.300781 -0.164062 5.875 -0.03125 C 5.457031 0.09375 5.007812 0.15625 4.53125 0.15625 C 3.320312 0.15625 2.367188 -0.210938 1.671875 -0.953125 C 0.972656 -1.703125 0.625 -2.71875 0.625 -4 C 0.625 -5.289062 0.972656 -6.304688 1.671875 -7.046875 C 2.367188 -7.796875 3.320312 -8.171875 4.53125 -8.171875 C 5.007812 -8.171875 5.460938 -8.101562 5.890625 -7.96875 C 6.316406 -7.84375 6.710938 -7.65625 7.078125 -7.40625 Z M 7.078125 -7.40625 "/>
</symbol>
<symbol overflow="visible" id="glyph0-2">
<path style="stroke:none;" d="M 1.03125 -8.359375 L 2.03125 -8.359375 L 2.03125 0 L 1.03125 0 Z M 1.03125 -8.359375 "/>
</symbol>
<symbol overflow="visible" id="glyph0-3">
<path style="stroke:none;" d="M 1.078125 -8.015625 L 2.546875 -8.015625 L 6.09375 -1.3125 L 6.09375 -8.015625 L 7.15625 -8.015625 L 7.15625 0 L 5.6875 0 L 2.125 -6.703125 L 2.125 0 L 1.078125 0 Z M 1.078125 -8.015625 "/>
</symbol>
<symbol overflow="visible" id="glyph0-4">
<path style="stroke:none;" d="M 1.078125 -8.015625 L 2.171875 -8.015625 L 2.171875 -4.734375 L 6.109375 -4.734375 L 6.109375 -8.015625 L 7.1875 -8.015625 L 7.1875 0 L 6.109375 0 L 6.109375 -3.8125 L 2.171875 -3.8125 L 2.171875 0 L 1.078125 0 Z M 1.078125 -8.015625 "/>
</symbol>
<symbol overflow="visible" id="glyph0-5">
<path style="stroke:none;" d="M 4.328125 -7.28125 C 3.546875 -7.28125 2.921875 -6.984375 2.453125 -6.390625 C 1.992188 -5.804688 1.765625 -5.007812 1.765625 -4 C 1.765625 -2.988281 1.992188 -2.1875 2.453125 -1.59375 C 2.921875 -1.007812 3.546875 -0.71875 4.328125 -0.71875 C 5.117188 -0.71875 5.742188 -1.007812 6.203125 -1.59375 C 6.660156 -2.1875 6.890625 -2.988281 6.890625 -4 C 6.890625 -5.007812 6.660156 -5.804688 6.203125 -6.390625 C 5.742188 -6.984375 5.117188 -7.28125 4.328125 -7.28125 Z M 4.328125 -8.171875 C 5.453125 -8.171875 6.351562 -7.789062 7.03125 -7.03125 C 7.707031 -6.28125 8.046875 -5.269531 8.046875 -4 C 8.046875 -2.738281 7.707031 -1.726562 7.03125 -0.96875 C 6.351562 -0.21875 5.453125 0.15625 4.328125 0.15625 C 3.203125 0.15625 2.300781 -0.21875 1.625 -0.96875 C 0.957031 -1.71875 0.625 -2.726562 0.625 -4 C 0.625 -5.269531 0.957031 -6.28125 1.625 -7.03125 C 2.300781 -7.789062 3.203125 -8.171875 4.328125 -8.171875 Z M 4.328125 -8.171875 "/>
</symbol>
<symbol overflow="visible" id="glyph1-0">
<path style="stroke:none;" d="M 0.453125 1.59375 L 0.453125 -6.34375 L 4.953125 -6.34375 L 4.953125 1.59375 Z M 0.953125 1.09375 L 4.453125 1.09375 L 4.453125 -5.84375 L 0.953125 -5.84375 Z M 0.953125 1.09375 "/>
</symbol>
<symbol overflow="visible" id="glyph1-1">
<path style="stroke:none;" d="M 0.4375 -2.828125 L 2.8125 -2.828125 L 2.8125 -2.109375 L 0.4375 -2.109375 Z M 0.4375 -2.828125 "/>
</symbol>
</g>
</defs>
<g id="surface21729">
<rect x="0" y="0" width="300" height="300" style="fill:rgb(100%,100%,100%);fill-opacity:1;stroke:none;"/>
<path style="fill:none;stroke-width:1.2;stroke-linecap:butt;stroke-linejoin:miter;stroke:rgb(0%,80%,0%);stroke-opacity:1;stroke-miterlimit:10;" d="M 229.792969 180.652344 L 226.09375 168.425781 "/>
<path style="fill:none;stroke-width:1.2;stroke-linecap:butt;stroke-linejoin:miter;stroke:rgb(0%,0%,0%);stroke-opacity:1;stroke-miterlimit:10;" d="M 226.09375 168.425781 L 222.394531 156.199219 "/>
<path style=" stroke:none;fill-rule:nonzero;fill:rgb(100%,100%,100%);fill-opacity:1;" d="M 224.792969 174.152344 L 235.792969 174.152344 L 235.792969 187.152344 L 224.792969 187.152344 Z M 224.792969 174.152344 "/>
<g style="fill:rgb(0%,80%,0%);fill-opacity:1;">
  <use xlink:href="#glyph0-1" x="224.792969" y="184.053711"/>
  <use xlink:href="#glyph0-2" x="232.244141" y="184.053711"/>
</g>
<path style="fill:none;stroke-width:1.2;stroke-linecap:butt;stroke-linejoin:miter;stroke:rgb(0%,0%,0%);stroke-opacity:1;stroke-miterlimit:10;" d="M 222.394531 156.199219 L 197.515625 150.378906 "/>
<path style="fill:none;stroke-width:1.2;stroke-linecap:butt;stroke-linejoin:miter;stroke:rgb(0%,0%,0%);stroke-opacity:1;stroke-miterlimit:10;" d="M 221.277344 149.765625 L 201.375 145.109375 "/>
<path style="fill:none;stroke-width:1.2;stroke-linecap:butt;stroke-linejoin:miter;stroke:rgb(0%,0%,0%);stroke-opacity:1;stroke-miterlimit:10;" d="M 239.875 137.566406 L 222.394531 156.199219 "/>
<path style="fill:none;stroke-width:1.2;stroke-linecap:butt;stroke-linejoin:miter;stroke:rgb(0%,0%,0%);stroke-opacity:1;stroke-miterlimit:10;" d="M 197.515625 150.378906 L 188.777344 159.695312 "/>
<path style="fill:none;stroke-width:1.2;stroke-linecap:butt;stroke-linejoin:miter;stroke:rgb(0%,0%,100%);stroke-opacity:1;stroke-miterlimit:10;" d="M 188.777344 159.695312 L 180.039062 169.011719 "/>
<path style="fill:none;stroke-width:1.2;stroke-linecap:butt;stroke-linejoin:miter;stroke:rgb(0%,0%,0%);stroke-opacity:1;stroke-miterlimit:10;" d="M 197.515625 150.378906 L 190.121094 125.925781 "/>
<path style="fill:none;stroke-width:1.2;stroke-linecap:butt;stroke-linejoin:miter;stroke:rgb(0%,0%,100%);stroke-opacity:1;stroke-miterlimit:10;" d="M 180.039062 169.011719 L 167.601562 166.101562 "/>
<path style="fill:none;stroke-width:1.2;stroke-linecap:butt;stroke-linejoin:miter;stroke:rgb(0%,0%,0%);stroke-opacity:1;stroke-miterlimit:10;" d="M 167.601562 166.101562 L 155.160156 163.191406 "/>
<path style=" stroke:none;fill-rule:nonzero;fill:rgb(100%,100%,100%);fill-opacity:1;" d="M 172.039062 162.511719 L 189.039062 162.511719 L 189.039062 175.511719 L 172.039062 175.511719 Z M 172.039062 162.511719 "/>
<g style="fill:rgb(0%,0%,100%);fill-opacity:1;">
  <use xlink:href="#glyph0-3" x="172.039062" y="172.413086"/>
  <use xlink:href="#glyph0-4" x="180.022461" y="172.413086"/>
</g>
<path style="fill:none;stroke-width:1.2;stroke-linecap:butt;stroke-linejoin:miter;stroke:rgb(0%,0%,0%);stroke-opacity:1;stroke-miterlimit:10;" d="M 158.039062 162.320312 L 154.339844 150.09375 "/>
<path style="fill:none;stroke-width:1.2;stroke-linecap:butt;stroke-linejoin:miter;stroke:rgb(100%,0%,0%);stroke-opacity:1;stroke-miterlimit:10;" d="M 154.339844 150.09375 L 150.640625 137.867188 "/>
<path style="fill:none;stroke-width:1.2;stroke-linecap:butt;stroke-linejoin:miter;stroke:rgb(0%,0%,0%);stroke-opacity:1;stroke-miterlimit:10;" d="M 152.285156 164.0625 L 148.585938 151.835938 "/>
<path style="fill:none;stroke-width:1.2;stroke-linecap:butt;stroke-linejoin:miter;stroke:rgb(100%,0%,0%);stroke-opacity:1;stroke-miterlimit:10;" d="M 148.585938 151.835938 L 144.886719 139.609375 "/>
<path style="fill:none;stroke-width:1.2;stroke-linecap:butt;stroke-linejoin:miter;stroke:rgb(0%,0%,0%);stroke-opacity:1;stroke-miterlimit:10;" d="M 155.160156 163.191406 L 146.421875 172.507812 "/>
<path style="fill:none;stroke-width:1.2;stroke-linecap:butt;stroke-linejoin:miter;stroke:rgb(0%,0%,100%);stroke-opacity:1;stroke-miterlimit:10;" d="M 146.421875 172.507812 L 137.683594 181.824219 "/>
<path style=" stroke:none;fill-rule:nonzero;fill:rgb(100%,100%,100%);fill-opacity:1;" d="M 138.765625 132.238281 L 147.765625 132.238281 L 147.765625 145.238281 L 138.765625 145.238281 Z M 138.765625 132.238281 "/>
<g style="fill:rgb(100%,0%,0%);fill-opacity:1;">
  <use xlink:href="#glyph0-5" x="138.765625" y="142.139648"/>
</g>
<path style="fill:none;stroke-width:1.2;stroke-linecap:butt;stroke-linejoin:miter;stroke:rgb(0%,0%,100%);stroke-opacity:1;stroke-miterlimit:10;" d="M 137.683594 181.824219 L 125.242188 178.914062 "/>
<path style="fill:none;stroke-width:1.2;stroke-linecap:butt;stroke-linejoin:miter;stroke:rgb(0%,0%,0%);stroke-opacity:1;stroke-miterlimit:10;" d="M 125.242188 178.914062 L 112.804688 176.003906 "/>
<path style=" stroke:none;fill-rule:nonzero;fill:rgb(100%,100%,100%);fill-opacity:1;" d="M 131.683594 173.824219 L 143.683594 173.824219 L 143.683594 189.824219 L 131.683594 189.824219 Z M 131.683594 173.824219 "/>
<g style="fill:rgb(0%,0%,100%);fill-opacity:1;">
  <use xlink:href="#glyph0-3" x="131.683594" y="186.957031"/>
</g>
<g style="fill:rgb(0%,0%,100%);fill-opacity:1;">
  <use xlink:href="#glyph1-1" x="139.666992" y="182.074219"/>
</g>
<path style="fill:none;stroke-width:1.2;stroke-linecap:butt;stroke-linejoin:miter;stroke:rgb(0%,0%,0%);stroke-opacity:1;stroke-miterlimit:10;" d="M 112.804688 176.003906 L 103.140625 184.355469 "/>
<path style="fill:none;stroke-width:1.2;stroke-linecap:butt;stroke-linejoin:miter;stroke:rgb(100%,0%,0%);stroke-opacity:1;stroke-miterlimit:10;" d="M 103.140625 184.355469 L 93.472656 192.707031 "/>
<path style="fill:none;stroke-width:1.2;stroke-linecap:butt;stroke-linejoin:miter;stroke:rgb(0%,0%,0%);stroke-opacity:1;stroke-miterlimit:10;" d="M 102.894531 152.457031 L 112.804688 176.003906 "/>
<path style="fill:none;stroke-width:1.2;stroke-linecap:butt;stroke-linejoin:miter;stroke:rgb(0%,0%,0%);stroke-opacity:1;stroke-miterlimit:10;" d="M 98.34375 157.144531 L 106.273438 175.980469 "/>
<path style="fill:none;stroke-width:1.2;stroke-linecap:butt;stroke-linejoin:miter;stroke:rgb(100%,0%,0%);stroke-opacity:1;stroke-miterlimit:10;" d="M 93.472656 192.707031 L 82.542969 186.097656 "/>
<path style="fill:none;stroke-width:1.2;stroke-linecap:butt;stroke-linejoin:miter;stroke:rgb(0%,0%,100%);stroke-opacity:1;stroke-miterlimit:10;" d="M 82.542969 186.097656 L 71.613281 179.484375 "/>
<path style=" stroke:none;fill-rule:nonzero;fill:rgb(100%,100%,100%);fill-opacity:1;" d="M 89.472656 186.207031 L 98.472656 186.207031 L 98.472656 199.207031 L 89.472656 199.207031 Z M 89.472656 186.207031 "/>
<g style="fill:rgb(100%,0%,0%);fill-opacity:1;">
  <use xlink:href="#glyph0-5" x="89.472656" y="196.108398"/>
</g>
<path style="fill:none;stroke-width:1.2;stroke-linecap:butt;stroke-linejoin:miter;stroke:rgb(0%,0%,100%);stroke-opacity:1;stroke-miterlimit:10;" d="M 71.613281 179.484375 L 74.523438 167.046875 "/>
<path style="fill:none;stroke-width:1.2;stroke-linecap:butt;stroke-linejoin:miter;stroke:rgb(0%,0%,0%);stroke-opacity:1;stroke-miterlimit:10;" d="M 74.523438 167.046875 L 77.433594 154.609375 "/>
<path style="fill:none;stroke-width:1.2;stroke-linecap:butt;stroke-linejoin:miter;stroke:rgb(0%,0%,100%);stroke-opacity:1;stroke-miterlimit:10;" d="M 78.050781 178.367188 L 80.378906 168.417969 "/>
<path style="fill:none;stroke-width:1.2;stroke-linecap:butt;stroke-linejoin:miter;stroke:rgb(0%,0%,0%);stroke-opacity:1;stroke-miterlimit:10;" d="M 80.378906 168.417969 L 82.707031 158.464844 "/>
<path style=" stroke:none;fill-rule:nonzero;fill:rgb(100%,100%,100%);fill-opacity:1;" d="M 67.613281 172.984375 L 75.613281 172.984375 L 75.613281 185.984375 L 67.613281 185.984375 Z M 67.613281 172.984375 "/>
<g style="fill:rgb(0%,0%,100%);fill-opacity:1;">
  <use xlink:href="#glyph0-3" x="67.613281" y="182.885742"/>
</g>
<path style="fill:none;stroke-width:1.2;stroke-linecap:butt;stroke-linejoin:miter;stroke:rgb(0%,0%,0%);stroke-opacity:1;stroke-miterlimit:10;" d="M 77.433594 154.609375 L 102.894531 152.457031 "/>
<path style="fill:none;stroke-width:1.2;stroke-linecap:butt;stroke-linejoin:miter;stroke:rgb(0%,0%,0%);stroke-opacity:1;stroke-miterlimit:10;" d="M 77.433594 154.609375 L 60.730469 135.277344 "/>
<path style="fill:none;stroke-width:1.2;stroke-linecap:butt;stroke-linejoin:miter;stroke:rgb(0%,0%,0%);stroke-opacity:1;stroke-miterlimit:10;" d="M 60.730469 135.277344 L 62.589844 109.796875 "/>
<path style="fill:none;stroke-width:1.2;stroke-linecap:butt;stroke-linejoin:miter;stroke:rgb(0%,0%,0%);stroke-opacity:1;stroke-miterlimit:10;" d="M 35.25 133.417969 L 60.730469 135.277344 "/>
<path style="fill:none;stroke-width:1.2;stroke-linecap:butt;stroke-linejoin:miter;stroke:rgb(0%,0%,0%);stroke-opacity:1;stroke-miterlimit:10;" d="M 62.589844 109.796875 L 37.109375 107.9375 "/>
<path style="fill:none;stroke-width:1.2;stroke-linecap:butt;stroke-linejoin:miter;stroke:rgb(0%,0%,0%);stroke-opacity:1;stroke-miterlimit:10;" d="M 37.109375 107.9375 L 35.25 133.417969 "/>
<path style="fill:none;stroke-width:1.2;stroke-linecap:butt;stroke-linejoin:miter;stroke:rgb(0%,0%,0%);stroke-opacity:1;stroke-miterlimit:10;" d="M 190.121094 125.925781 L 207.597656 107.292969 "/>
<path style="fill:none;stroke-width:1.2;stroke-linecap:butt;stroke-linejoin:miter;stroke:rgb(0%,0%,0%);stroke-opacity:1;stroke-miterlimit:10;" d="M 196.253906 128.175781 L 210.234375 113.269531 "/>
<path style="fill:none;stroke-width:1.2;stroke-linecap:butt;stroke-linejoin:miter;stroke:rgb(0%,0%,0%);stroke-opacity:1;stroke-miterlimit:10;" d="M 207.597656 107.292969 L 232.476562 113.113281 "/>
<path style="fill:none;stroke-width:1.2;stroke-linecap:butt;stroke-linejoin:miter;stroke:rgb(0%,0%,0%);stroke-opacity:1;stroke-miterlimit:10;" d="M 232.476562 113.113281 L 239.875 137.566406 "/>
<path style="fill:none;stroke-width:1.2;stroke-linecap:butt;stroke-linejoin:miter;stroke:rgb(0%,0%,0%);stroke-opacity:1;stroke-miterlimit:10;" d="M 227.460938 117.296875 L 233.378906 136.863281 "/>
<path style="fill:none;stroke-width:1.2;stroke-linecap:butt;stroke-linejoin:miter;stroke:rgb(0%,0%,0%);stroke-opacity:1;stroke-miterlimit:10;" d="M 239.875 137.566406 L 252.3125 140.476562 "/>
<path style="fill:none;stroke-width:1.2;stroke-linecap:butt;stroke-linejoin:miter;stroke:rgb(0%,80%,0%);stroke-opacity:1;stroke-miterlimit:10;" d="M 252.3125 140.476562 L 264.75 143.386719 "/>
<path style=" stroke:none;fill-rule:nonzero;fill:rgb(100%,100%,100%);fill-opacity:1;" d="M 259.75 136.886719 L 270.75 136.886719 L 270.75 149.886719 L 259.75 149.886719 Z M 259.75 136.886719 "/>
<g style="fill:rgb(0%,80%,0%);fill-opacity:1;">
  <use xlink:href="#glyph0-1" x="259.75" y="146.788086"/>
  <use xlink:href="#glyph0-2" x="267.201172" y="146.788086"/>
</g>
</g>
</svg>

<svg xmlns="http://www.w3.org/2000/svg" xmlns:xlink="http://www.w3.org/1999/xlink" width="300pt" height="300pt" viewBox="0 0 300 300"><defs><symbol overflow="visible"><path d="M.547 1.938V-7.75h5.5v9.688zm.625-.61h4.266v-8.47H1.171zm0 0"/></symbol><symbol overflow="visible" id="a"><path d="M7.078-7.406v1.156c-.367-.344-.758-.598-1.172-.766-.406-.164-.843-.25-1.312-.25-.918 0-1.62.282-2.11.844-.48.555-.718 1.36-.718 2.422 0 1.055.238 1.86.718 2.422.49.562 1.192.844 2.11.844.468 0 .906-.082 1.312-.25.414-.164.805-.422 1.172-.766v1.125c-.375.262-.777.46-1.203.594-.418.124-.867.186-1.344.186-1.21 0-2.163-.367-2.858-1.11C.972-1.703.625-2.718.625-4c0-1.29.348-2.305 1.047-3.047.695-.75 1.648-1.125 2.86-1.125.476 0 .93.07 1.36.203.424.126.82.314 1.186.564zm0 0"/></symbol><symbol overflow="visible" id="b"><path d="M1.03-8.36h1V0h-1zm0 0"/></symbol><symbol overflow="visible" id="c"><path d="M1.078-8.016h1.47l3.546 6.704v-6.704h1.062V0H5.688L2.124-6.703V0H1.078zm0 0"/></symbol><symbol overflow="visible" id="d"><path d="M1.078-8.016h1.094v3.282H6.11v-3.282h1.077V0H6.11v-3.813H2.17V0H1.078zm0 0"/></symbol><symbol overflow="visible" id="e"><path d="M4.328-7.28c-.78 0-1.406.296-1.875.89-.46.585-.687 1.382-.687 2.39 0 1.012.226 1.813.687 2.406.47.586 1.094.875 1.875.875.79 0 1.414-.288 1.875-.874.457-.593.688-1.394.688-2.406 0-1.008-.23-1.805-.687-2.39-.46-.594-1.086-.89-1.875-.89zm0-.892c1.125 0 2.024.383 2.703 1.14C7.708-6.28 8.048-5.27 8.048-4c0 1.262-.34 2.273-1.016 3.03C6.353-.22 5.454.157 4.33.157S2.3-.22 1.625-.97c-.668-.75-1-1.757-1-3.03 0-1.27.332-2.28 1-3.03.676-.76 1.578-1.142 2.703-1.142zm0 0"/></symbol><symbol overflow="visible"><path d="M.453 1.594v-7.938h4.5v7.938zm.5-.5h3.5v-6.938h-3.5zm0 0"/></symbol><symbol overflow="visible" id="f"><path d="M.438-2.828h2.374v.72H.438zm0 0"/></symbol></defs><g><path fill="#fff" d="M0 0h300v300H0z"/><path d="M229.793 180.652l-3.7-12.226" stroke-width="1.2" stroke="#0c0" stroke-miterlimit="10" fill="none"/><path d="M226.094 168.426l-3.7-12.227" stroke-width="1.2" stroke="#000" stroke-miterlimit="10" fill="none"/><path d="M224.793 174.152h11v13h-11zm0 0" fill="#fff"/><g fill="#0c0"><use xlink:href="#a" x="224.793" y="184.054"/><use xlink:href="#b" x="232.244" y="184.054"/></g><path d="M222.395 156.2l-24.88-5.82M221.277 149.766l-19.902-4.657M239.875 137.566l-17.48 18.633M197.516 150.38l-8.74 9.315" stroke-width="1.2" stroke="#000" stroke-miterlimit="10" fill="none"/><path d="M188.777 159.695l-8.738 9.317" stroke-width="1.2" stroke="#00f" stroke-miterlimit="10" fill="none"/><path d="M197.516 150.38l-7.395-24.454" stroke-width="1.2" stroke="#000" stroke-miterlimit="10" fill="none"/><path d="M180.04 169.012l-12.438-2.91" stroke-width="1.2" stroke="#00f" stroke-miterlimit="10" fill="none"/><path d="M167.602 166.102l-12.442-2.91" stroke-width="1.2" stroke="#000" stroke-miterlimit="10" fill="none"/><path d="M172.04 162.512h17v13h-17zm0 0" fill="#fff"/><g fill="#00f"><use xlink:href="#c" x="172.039" y="172.413"/><use xlink:href="#d" x="180.022" y="172.413"/></g><path d="M158.04 162.32l-3.7-12.226" stroke-width="1.2" stroke="#000" stroke-miterlimit="10" fill="none"/><path d="M154.34 150.094l-3.7-12.227" stroke-width="1.2" stroke="#f00" stroke-miterlimit="10" fill="none"/><path d="M152.285 164.063l-3.7-12.227" stroke-width="1.2" stroke="#000" stroke-miterlimit="10" fill="none"/><path d="M148.586 151.836l-3.7-12.227" stroke-width="1.2" stroke="#f00" stroke-miterlimit="10" fill="none"/><path d="M155.16 163.19l-8.738 9.318" stroke-width="1.2" stroke="#000" stroke-miterlimit="10" fill="none"/><path d="M146.422 172.508l-8.738 9.316" stroke-width="1.2" stroke="#00f" stroke-miterlimit="10" fill="none"/><path d="M138.766 132.238h9v13h-9zm0 0" fill="#fff"/><use xlink:href="#e" x="138.766" y="142.14" fill="#f00"/><path d="M137.684 181.824l-12.442-2.91" stroke-width="1.2" stroke="#00f" stroke-miterlimit="10" fill="none"/><path d="M125.242 178.914l-12.437-2.91" stroke-width="1.2" stroke="#000" stroke-miterlimit="10" fill="none"/><path d="M131.684 173.824h12v16h-12zm0 0" fill="#fff"/><use xlink:href="#c" x="131.684" y="186.957" fill="#00f"/><use xlink:href="#f" x="139.667" y="182.074" fill="#00f"/><path d="M112.805 176.004l-9.664 8.35" stroke-width="1.2" stroke="#000" stroke-miterlimit="10" fill="none"/><path d="M103.14 184.355l-9.667 8.352" stroke-width="1.2" stroke="#f00" stroke-miterlimit="10" fill="none"/><path d="M102.895 152.457l9.91 23.547M98.344 157.145l7.93 18.835" stroke-width="1.2" stroke="#000" stroke-miterlimit="10" fill="none"/><path d="M93.473 192.707l-10.93-6.61" stroke-width="1.2" stroke="#f00" stroke-miterlimit="10" fill="none"/><path d="M82.543 186.098l-10.93-6.614" stroke-width="1.2" stroke="#00f" stroke-miterlimit="10" fill="none"/><path d="M89.473 186.207h9v13h-9zm0 0" fill="#fff"/><use xlink:href="#e" x="89.473" y="196.108" fill="#f00"/><path d="M71.613 179.484l2.91-12.437" stroke-width="1.2" stroke="#00f" stroke-miterlimit="10" fill="none"/><path d="M74.523 167.047l2.91-12.438" stroke-width="1.2" stroke="#000" stroke-miterlimit="10" fill="none"/><path d="M78.05 178.367l2.33-9.95" stroke-width="1.2" stroke="#00f" stroke-miterlimit="10" fill="none"/><path d="M80.38 168.418l2.327-9.953" stroke-width="1.2" stroke="#000" stroke-miterlimit="10" fill="none"/><path d="M67.613 172.984h8v13h-8zm0 0" fill="#fff"/><use xlink:href="#c" x="67.613" y="182.886" fill="#00f"/><path d="M77.434 154.61l25.46-2.153M77.434 154.61L60.73 135.276M60.73 135.277l1.86-25.48M35.25 133.418l25.48 1.86M62.59 109.797l-25.48-1.86M37.11 107.938l-1.86 25.48M190.12 125.926l17.478-18.633M196.254 128.176l13.98-14.906M207.598 107.293l24.88 5.82M232.477 113.113l7.398 24.453M227.46 117.297l5.92 19.566M239.875 137.566l12.438 2.91" stroke-width="1.2" stroke="#000" stroke-miterlimit="10" fill="none"/><path d="M252.313 140.477l12.437 2.91" stroke-width="1.2" stroke="#0c0" stroke-miterlimit="10" fill="none"/><path d="M259.75 136.887h11v13h-11zm0 0" fill="#fff"/><g fill="#0c0"><use xlink:href="#a" x="259.75" y="146.788"/><use xlink:href="#b" x="267.201" y="146.788"/></g></g></svg>
